svgs/sharp-light/kit-medical.svg

<svg xmlns="http://www.w3.org/2000/svg" viewBox="0 0 576 512"><!--! Font Awesome Pro 6.6.0 by @fontawesome - https://fontawesome.com License - https://fontawesome.com/license (Commercial License) Copyright 2024 Fonticons, Inc. --><path d="M128 448l0-384 320 0 0 384-320 0zm-32 0l-64 0L32 64l64 0 0 384zM112 32L96 32 32 32 0 32 0 64 0 448l0 32 32 0 64 0 16 0 16 0 320 0 16 0 16 0 64 0 32 0 0-32 0-384 0-32-32 0-64 0-16 0-16 0L128 32l-16 0zM544 448l-64 0 0-384 64 0 0 384zM256 144l-16 0 0 16 0 48-48 0-16 0 0 16 0 64 0 16 16 0 48 0 0 48 0 16 16 0 64 0 16 0 0-16 0-48 48 0 16 0 0-16 0-64 0-16-16 0-48 0 0-48 0-16-16 0-64 0zm16 80l0-48 32 0 0 48 0 16 16 0 48 0 0 32-48 0-16 0 0 16 0 48-32 0 0-48 0-16-16 0-48 0 0-32 48 0 16 0 0-16z"/></svg>

<svg xmlns="http://www.w3.org/2000/svg" viewBox="0 0 576 512"><!--! Font Awesome Pro 6.4.0 by @fontawesome - https://fontawesome.com License - https://fontawesome.com/license (Commercial License) Copyright 2023 Fonticons, Inc. --><path d="M128 448V64H448V448H128zm-32 0H32V64H96V448zM112 32H96 32 0V64 448v32H32 96h16 16H448h16 16 64 32V448 64 32H544 480 464 448 128 112zM544 448H480V64h64V448zM256 144H240v16 48H192 176v16 64 16h16 48v48 16h16 64 16V352 304h48 16V288 224 208H384 336V160 144H320 256zm16 80V176h32v48 16h16 48v32H320 304v16 48H272V288 272H256 208V240h48 16V224z"/></svg>
